X:1
T:Title
%%score { ( 1 2 ) | ( 3 4 ) }
L:1/8
Q:1/4=76
M:4/4
K:Eb
V:1 treble nm="Grand Piano"
V:2 treble 
V:3 bass 
V:4 bass 
V:1
 [B,EG]2 [B,DF][B,EG] [CEA]2 [B,G]F | .[G,E]2 GA B2 ec | A2 z2 z4 | F8 | z4 z2 .[B,G]2 | %5
w: Chas.~H.~Gabriel,~Jr. * * * * *|||||
 [G,E]2 dc B2 z F | G2 FG A2 .[B,DF]2 | [G,B,E]8 | .[B,DF]2 [B,DF][B,EG] [B,A]-[B,CA][FB][DA] | %9
w: ||||
 [B,EG]2 [B,E]2 [DF]4 | .[B,DF]2 [B,DF][B,EG] [B,A]-[B,CA][FB][DA] |[M:9/8] z2 [Fe]- [Fe] d2- d3 | %12
w: |||
[M:4/4] [Ge]2 [Bd].[CAc] [EGB]2 G-[GB] | A2 c2 c2 e2 | e4[K:bass][K:treble] B2 z2 | E8 |] %16
w: ||||
V:2
 z4 z2 D2 | z2 [B,E]2 z4 | z E[Ad][FB] .[B,EG]2 [Cc][EA] | .[B,E]2 [=A,C][A,E] [B,D]4 | %4
 [B,EG]2 [B,DF][B,EG] [CEA]2 D-[A,DF] | z2 E2 z2 E2 | x8 | x8 | z4 .D2 B,2 | x8 | z4 .D2 B,2 | %11
[M:9/8] .[B,EG]3 F,FG A3 |[M:4/4] z4 z2 .[=Ec]2 | x8 | z[K:bass] G,E,[K:treble]G E[F,D] [FB]2 | %15
 z _DC=B, _B,4 |] %16
V:3
 E,2 B,,E, A,,2 z A, | z A,C,D, [G,B,E]2 [G,E]-[G,A,E] | .[CF]2 _B,2 E,2 A,2 | z DF,F, B,,4 | %4
 E,2 B,,E, A,,2 B,,=B,, | z[K:treble] e[K:bass]B,A, [E,G,E]2 [G,B,][A,C] | %6
 [B,E]2 C-[G,C=E] [F,CF]2 z A, | E,8 | B,,B,A,G, F,E,D,B,, | z4 B,4 | B,,B,A,G, F,E,D,B,, | %11
[M:9/8] z2 =A,- A, z z z3 |[M:4/4] z2 A,A, z4 | [F,CF]2 [G,B,=E]2 [A,CF]2 [=A,C_G]2 | %14
 [B,G]3[K:bass] [E,B,E] .[B,,G,]2 [B,,A,]2 | E,-[E,-B,][E,-=A,][E,-_A,] [E,G,]4 |] %16
V:4
 z4 z2 B,,2 | E,2 z2 z2 .B,2 | F,-[F,=B,]B,,D, z _DA,,C, | B,,2 z2 z4 | x8 | %5
 C,2[K:treble][K:bass] A,,2 z4 | z2 .[A,E]2 z2 B,,2 | x8 | x8 | E,F,G,A, z F,D,C, | x8 | %11
[M:9/8] E,D,C, z [B,,B,]2- [B,,B,]3 |[M:4/4] [E,B,]2 z/ .B,D/ E,_D,C,[=E,C] | x8 | x3[K:bass] x5 | %15
 .G,2 z2 z4 |] %16

